#define meshcore_width  189
#define meshcore_height 20
static const char meshcore_bits[] = {
  0xf0, 0x03, 0xc0, 0x1f, 0xfe, 0xff, 0x07, 0xff, 0xff, 0xe1, 0x07, 0xf8, 0x81, 0xff, 0x3f, 0xf8, 0xff, 0x0f,
  0xfc, 0xff, 0x0f, 0xfc, 0xff, 0xff, 0xf8, 0x03, 0xc0, 0x1f, 0xff, 0xff, 0x87, 0xff, 0xff, 0xe1, 0x07, 0xf8,
  0xc1, 0xff, 0x3f, 0xfc, 0xff, 0x1f, 0xfc, 0xff, 0x1f, 0xfc, 0xff, 0xff, 0xf8, 0x07, 0xe0, 0x1f, 0xff, 0xff,
  0xc7, 0xff, 0xff, 0xe1, 0x07, 0xf8, 0xe1, 0xff, 0x3f, 0xfe, 0xff, 0x3f, 0xfc, 0xff, 0x3f, 0xfc, 0xff, 0xff,
  0xf8, 0x07, 0xf0, 0x1f, 0xff, 0xff, 0xe7, 0xff, 0xff, 0xe1, 0x07, 0xf8, 0xf1, 0xff, 0x3f, 0xff, 0xff, 0x3f,
  0xfe, 0xff, 0x3f, 0xfe, 0xff, 0xef, 0xf8, 0x07, 0xf0, 0x0f, 0xff, 0xff, 0xe7, 0xff, 0xff, 0xf1, 0x07, 0xfc,
  0xf1, 0xff, 0x1f, 0xff, 0xff, 0x3f, 0xfe, 0xff, 0x3f, 0xfe, 0xff, 0xef, 0xf8, 0x07, 0xf8, 0x0f, 0x3f, 0x00,
  0xf0, 0x03, 0x00, 0xf0, 0x03, 0xfc, 0xf1, 0x03, 0x00, 0x3f, 0x00, 0x3f, 0x7e, 0x00, 0x3f, 0x7e, 0x00, 0xe0,
  0xfc, 0x0f, 0xfc, 0x8f, 0x3f, 0x00, 0xf0, 0x03, 0x00, 0xf0, 0x03, 0xfc, 0xf8, 0x03, 0x80, 0x1f, 0x00, 0x3f,
  0x7e, 0x00, 0x3f, 0x7e, 0x00, 0xe0, 0xfc, 0x0f, 0xfc, 0x8f, 0x3f, 0x00, 0xf0, 0x03, 0x00, 0xf0, 0xff, 0xff,
  0xf8, 0x01, 0x80, 0x1f, 0x80, 0x3f, 0x7e, 0x00, 0x3f, 0x7e, 0x00, 0xe0, 0xfc, 0x0f, 0xfe, 0x8f, 0xff, 0xff,
  0xf0, 0xff, 0x7f, 0xf0, 0xff, 0xff, 0xf8, 0x01, 0x80, 0x1f, 0x80, 0x1f, 0x7e, 0x80, 0x3f, 0xfe, 0xff, 0xe1,
  0xfc, 0x1f, 0xff, 0x87, 0xff, 0xff, 0xf0, 0xff, 0xff, 0xf0, 0xff, 0xff, 0xf8, 0x01, 0x80, 0x1f, 0x80, 0x1f,
  0x3f, 0x80, 0x1f, 0xff, 0xff, 0xe1, 0xfc, 0x1f, 0xff, 0x87, 0xff, 0xff, 0xe0, 0xff, 0xff, 0xf8, 0xff, 0xff,
  0xf8, 0x01, 0x80, 0x1f, 0x80, 0x1f, 0xff, 0xff, 0x1f, 0xff, 0xff, 0xe1, 0xfe, 0x9f, 0xff, 0xc7, 0xff, 0x7f,
  0xc0, 0xff, 0xff, 0xf8, 0xff, 0xff, 0xfc, 0x01, 0xc0, 0x1f, 0x80, 0x1f, 0xff, 0xff, 0x1f, 0xff, 0xff, 0xe1,
  0xfe, 0xdf, 0xff, 0xc7, 0x0f, 0x00, 0x00, 0xfe, 0xff, 0xf8, 0x01, 0x7e, 0xfc, 0x00, 0xc0, 0x0f, 0x80, 0x1f,
  0xff, 0xff, 0x0f, 0x3f, 0x00, 0xe0, 0x7e, 0xff, 0xef, 0xc7, 0x0f, 0x00, 0x00, 0x00, 0xfc, 0xf8, 0x01, 0x7e,
  0xfc, 0x00, 0xc0, 0x0f, 0xc0, 0x1f, 0xff, 0xff, 0x07, 0x3f, 0x00, 0xe0, 0x7e, 0xff, 0xef, 0xc7, 0x0f, 0x00,
  0x00, 0x00, 0xfc, 0xf8, 0x01, 0x7e, 0xfc, 0x00, 0xc0, 0x0f, 0xc0, 0x8f, 0xff, 0xff, 0x83, 0x3f, 0x00, 0xe0,
  0x3e, 0xff, 0xe7, 0xc3, 0xff, 0xff, 0xf9, 0xff, 0xff, 0xfc, 0x01, 0x7f, 0xfc, 0xff, 0xc7, 0xff, 0xff, 0x8f,
  0x1f, 0xf8, 0x83, 0xff, 0xff, 0xe3, 0x3e, 0xfe, 0xf3, 0xc3, 0xff, 0xff, 0xf9, 0xff, 0x7f, 0xfc, 0x00, 0x3f,
  0xfc, 0xff, 0xc7, 0xff, 0xff, 0x8f, 0x1f, 0xf8, 0x87, 0xff, 0xff, 0xe3, 0x3f, 0xfe, 0xf3, 0xe3, 0xff, 0xff,
  0xf8, 0xff, 0x7f, 0xfc, 0x00, 0x3f, 0xfc, 0xff, 0xc7, 0xff, 0xff, 0x87, 0x1f, 0xf0, 0x87, 0xff, 0xff, 0xe3,
  0x3f, 0xfe, 0xf1, 0xe3, 0xff, 0xff, 0xf8, 0xff, 0x3f, 0xfc, 0x00, 0x3f, 0xf8, 0xff, 0x87, 0xff, 0xff, 0x83,
  0x1f, 0xf0, 0x8f, 0xff, 0xff, 0xe3, 0x3f, 0xfc, 0xf0, 0xe3, 0xff, 0xff, 0xf8, 0xff, 0x0f, 0xfc, 0x00, 0x3f,
  0xf0, 0xff, 0x07, 0xff, 0xff, 0x81, 0x1f, 0xe0, 0x8f, 0xff, 0xff, 0xe1
};
